X: 54
T: No_147_Fox_Dance_Song_(b).krn
N: Derived from No_147_Fox_Dance_Song_(b).krn
%%abc-version 2.0
%%abcx-abcm2ps-target-version 5.9.1 (29 Sep 2008)
%%abc-creator hum2abc beta
%%abcx-conversion-date 2019/03/15 08:38:45
%%humdrum-veritas 777400084
%%humdrum-veritas-data 2731216470
%%linebreak <none>
%%barnumbers 0
L: 1/8
M: 3/4
K: G clef=bass
[K:clef=bass][M:3/4]z4z3/ D,/ ]|:  
D,A,/A,/A,2A,2 ||  
[M:7/8]G,D,/D,/D,2D,D,3//A,//A,//A,//G,/ ||  
[M:2/4]D,D,D,2 | 
G,D,/D,/D,2 | 
B,,2D,3/E,/ | 
E,D,/D,/D,2 | 
D,D, D,E, :|]  
D,D,D,2 |]  



